static/images/google-play2.svg

<svg fill="#fff" height="100" viewBox="0 0 50 50" width="100" xmlns="http://www.w3.org/2000/svg"><path d="m7.125 2 21.65625 21.5 5.9375-5.9375-26.25-15.15625c-.4375-.253906-.90625-.394531-1.34375-.40625zm-1.8125 1c-.195312.347656-.3125.757813-.3125 1.21875v41.78125c0 .335938.070313.636719.1875.90625l22.15625-22zm31.21875 15.59375-6.34375 6.3125 6.34375 6.28125 7.75-4.4375c1.101563-.636719 1.257813-1.445312 1.25-1.875-.011719-.710937-.460937-1.375-1.21875-1.78125-.660156-.355469-5.5625-3.210937-7.78125-4.5zm-7.75 7.71875-21.84375 21.65625c.363281-.019531.757813-.097656 1.125-.3125.855469-.496094 18.15625-10.5 18.15625-10.5l8.53125-4.90625z" fill="#fff"/></svg>

<?xml version="1.0" encoding="UTF-8"?>
<svg xmlns="http://www.w3.org/2000/svg" xmlns:xlink="http://www.w3.org/1999/xlink" viewBox="0 0 50 50" version="1.1" fill="#ffffff" width="100px" height="100px">
<g id="surface1" fill="#ffffff">
<path style=" " d="M 7.125 2 L 28.78125 23.5 L 34.71875 17.5625 L 8.46875 2.40625 C 8.03125 2.152344 7.5625 2.011719 7.125 2 Z M 5.3125 3 C 5.117188 3.347656 5 3.757813 5 4.21875 L 5 46 C 5 46.335938 5.070313 46.636719 5.1875 46.90625 L 27.34375 24.90625 Z M 36.53125 18.59375 L 30.1875 24.90625 L 36.53125 31.1875 L 44.28125 26.75 C 45.382813 26.113281 45.539063 25.304688 45.53125 24.875 C 45.519531 24.164063 45.070313 23.5 44.3125 23.09375 C 43.652344 22.738281 38.75 19.882813 36.53125 18.59375 Z M 28.78125 26.3125 L 6.9375 47.96875 C 7.300781 47.949219 7.695313 47.871094 8.0625 47.65625 C 8.917969 47.160156 26.21875 37.15625 26.21875 37.15625 L 34.75 32.25 Z " fill="#ffffff"/>
</g>
</svg>
